web/workspace/public/assets/network/dadi-network_gateway-black.svg

<svg viewBox="0 0 150 150" xmlns="http://www.w3.org/2000/svg"><g fill="none" stroke="#04111c" stroke-miterlimit="10" stroke-width="5"><path d="m93.4 75.2v17.7h-35.5v-35.4h37.5m-6.8 59.4-14.1 14.1v-25.7m-14-72.2 14-14.1v25.7m1.2 30.5h55.8m-87.5 0h-25.7l14.1-14.1"/><path d="m45.2 44.6h61.3v61.3h-61.3zm72.1 16.1 14.4 14.3-14.4 14.3"/></g></svg>

<svg xmlns="http://www.w3.org/2000/svg" viewBox="0 0 150 150"><style>.st0{fill:#04111d}.st1{fill:#fff}.st2,.st3,.st4{fill:none;stroke:#fff;stroke-width:4;stroke-miterlimit:10}.st3,.st4{stroke:#04111c;stroke-width:5}.st4{stroke:#0ecc5f;stroke-width:4}</style><g id="icons"><path class="st3" d="M93.4 75.2v17.7H57.9V57.5h37.5M88.6 116.9L74.5 131v-25.7M60.5 33.1l14-14.1v25.7M75.7 75.2h55.8M44 75.2H18.3l14.1-14.1"/><path class="st3" d="M45.2 44.6h61.3v61.3H45.2zM117.3 60.7L131.7 75l-14.4 14.3"/></g></svg>
